Numix-Circle/48x48/apps/rawtherapee.svg

<?xml version="1.0" encoding="UTF-8" standalone="no"?>
<svg
   xmlns:dc="http://purl.org/dc/elements/1.1/"
   xmlns:cc="http://creativecommons.org/ns#"
   xmlns:rdf="http://www.w3.org/1999/02/22-rdf-syntax-ns#"
   xmlns:svg="http://www.w3.org/2000/svg"
   xmlns="http://www.w3.org/2000/svg"
   xmlns:xlink="http://www.w3.org/1999/xlink"
   xmlns:sodipodi="http://sodipodi.sourceforge.net/DTD/sodipodi-0.dtd"
   xmlns:inkscape="http://www.inkscape.org/namespaces/inkscape"
   viewBox="0 0 48 48"
   id="svg2"
   version="1.1"
   inkscape:version="0.48.4 r9939"
   width="100%"
   height="100%"
   sodipodi:docname="rawtherapee.svg">
  <metadata
     id="metadata77">
    <rdf:RDF>
      <cc:Work
         rdf:about="">
        <dc:format>image/svg+xml</dc:format>
        <dc:type
           rdf:resource="http://purl.org/dc/dcmitype/StillImage" />
      </cc:Work>
    </rdf:RDF>
  </metadata>
  <sodipodi:namedview
     pagecolor="#ffffff"
     bordercolor="#666666"
     borderopacity="1"
     objecttolerance="10"
     gridtolerance="10"
     guidetolerance="10"
     inkscape:pageopacity="0"
     inkscape:pageshadow="2"
     inkscape:window-width="1280"
     inkscape:window-height="960"
     id="namedview75"
     showgrid="false"
     inkscape:zoom="13.906433"
     inkscape:cx="40.104811"
     inkscape:cy="15.382612"
     inkscape:window-x="0"
     inkscape:window-y="0"
     inkscape:window-maximized="1"
     inkscape:current-layer="svg2" />
  <defs
     id="defs4">
    <linearGradient
       id="linearGradient3764"
       x1="1"
       x2="47"
       gradientUnits="userSpaceOnUse"
       gradientTransform="matrix(0,-1,1,0,-1.5e-6,47.999998)">
      <stop
         stop-color="#e4e4e4"
         stop-opacity="1"
         id="stop7" />
      <stop
         offset="1"
         stop-color="#eee"
         stop-opacity="1"
         id="stop9" />
    </linearGradient>
    <clipPath
       id="clipPath-768508984">
      <g
         transform="translate(0,-1004.3622)"
         id="g12">
        <path
           d="m -24 13 c 0 1.105 -0.672 2 -1.5 2 -0.828 0 -1.5 -0.895 -1.5 -2 0 -1.105 0.672 -2 1.5 -2 0.828 0 1.5 0.895 1.5 2 z"
           transform="matrix(15.333333,0,0,11.5,414.99999,878.8622)"
           fill="#1890d0"
           id="path14" />
      </g>
    </clipPath>
    <clipPath
       id="clipPath-780600806">
      <g
         transform="translate(0,-1004.3622)"
         id="g17">
        <path
           d="m -24 13 c 0 1.105 -0.672 2 -1.5 2 -0.828 0 -1.5 -0.895 -1.5 -2 0 -1.105 0.672 -2 1.5 -2 0.828 0 1.5 0.895 1.5 2 z"
           transform="matrix(15.333333,0,0,11.5,414.99999,878.8622)"
           fill="#1890d0"
           id="path19" />
      </g>
    </clipPath>
    <linearGradient
       inkscape:collect="always"
       xlink:href="#linearGradient3764"
       id="linearGradient3131"
       gradientUnits="userSpaceOnUse"
       gradientTransform="matrix(0,-1,1,0,-1.5e-6,47.999998)"
       x1="1"
       x2="47" />
    <linearGradient
       inkscape:collect="always"
       xlink:href="#linearGradient3764"
       id="linearGradient3134"
       gradientUnits="userSpaceOnUse"
       gradientTransform="matrix(0,-1,1,0,-1.5e-6,47.999998)"
       x1="1"
       x2="47" />
    <linearGradient
       inkscape:collect="always"
       xlink:href="#linearGradient3764"
       id="linearGradient3143"
       gradientUnits="userSpaceOnUse"
       gradientTransform="matrix(0,-1,1,0,-1.5e-6,47.999998)"
       x1="1"
       x2="47" />
    <linearGradient
       inkscape:collect="always"
       xlink:href="#linearGradient3764"
       id="linearGradient3146"
       gradientUnits="userSpaceOnUse"
       gradientTransform="matrix(0,-1,1,0,-1.5e-6,47.999998)"
       x1="1"
       x2="47" />
    <linearGradient
       inkscape:collect="always"
       xlink:href="#linearGradient3764"
       id="linearGradient3149"
       gradientUnits="userSpaceOnUse"
       gradientTransform="matrix(0,-1,1,0,-1.5e-6,47.999998)"
       x1="1"
       x2="47" />
    <linearGradient
       inkscape:collect="always"
       xlink:href="#linearGradient3764"
       id="linearGradient3152"
       gradientUnits="userSpaceOnUse"
       gradientTransform="matrix(0,-1,1,0,-1.5e-6,47.999998)"
       x1="1"
       x2="47" />
    <linearGradient
       inkscape:collect="always"
       xlink:href="#linearGradient3764"
       id="linearGradient3165"
       gradientUnits="userSpaceOnUse"
       gradientTransform="matrix(0,-0.97498811,0.97498811,0,0.60028377,47.399713)"
       x1="1"
       x2="47" />
  </defs>
  <g
     id="g21">
    <path
       d="m 36.31 5 c 5.859 4.062 9.688 10.831 9.688 18.5 c 0 12.426 -10.07 22.5 -22.5 22.5 c -7.669 0 -14.438 -3.828 -18.5 -9.688 c 1.037 1.822 2.306 3.499 3.781 4.969 c 4.085 3.712 9.514 5.969 15.469 5.969 c 12.703 0 23 -10.298 23 -23 c 0 -5.954 -2.256 -11.384 -5.969 -15.469 c -1.469 -1.475 -3.147 -2.744 -4.969 -3.781 z m 4.969 3.781 c 3.854 4.113 6.219 9.637 6.219 15.719 c 0 12.703 -10.297 23 -23 23 c -6.081 0 -11.606 -2.364 -15.719 -6.219 c 4.16 4.144 9.883 6.719 16.219 6.719 c 12.703 0 23 -10.298 23 -23 c 0 -6.335 -2.575 -12.06 -6.719 -16.219 z"
       opacity="0.05"
       id="path23" />
    <path
       d="m 41.28 8.781 c 3.712 4.085 5.969 9.514 5.969 15.469 c 0 12.703 -10.297 23 -23 23 c -5.954 0 -11.384 -2.256 -15.469 -5.969 c 4.113 3.854 9.637 6.219 15.719 6.219 c 12.703 0 23 -10.298 23 -23 c 0 -6.081 -2.364 -11.606 -6.219 -15.719 z"
       opacity="0.1"
       id="path25" />
    <path
       d="m 31.25 2.375 c 8.615 3.154 14.75 11.417 14.75 21.13 c 0 12.426 -10.07 22.5 -22.5 22.5 c -9.708 0 -17.971 -6.135 -21.12 -14.75 a 23 23 0 0 0 44.875 -7 a 23 23 0 0 0 -16 -21.875 z"
       opacity="0.2"
       id="path27" />
  </g>
  <path
     inkscape:connector-curvature="0"
     style="fill:url(#linearGradient3165);fill-opacity:1"
     id="path31"
     d="M 24,1.5752733 C 36.385274,1.5752733 46.424727,11.614726 46.424727,24 46.424727,36.385274 36.385274,46.424727 24,46.424727 11.614726,46.424727 1.5752733,36.385274 1.5752733,24 1.5752733,11.614726 11.614726,1.5752733 24,1.5752733 z" />
  <g
     id="g33" />
  <path
     style="opacity:0.1;fill:#000000;fill-opacity:1;fill-rule:nonzero;stroke:none"
     d="m 24,12 c -1.098285,0 -2.146159,0.164798 -3.15625,0.4375 l -0.03125,0 c -0.627555,0.17178 -1.230761,0.390523 -1.8125,0.65625 -0.295299,0.134887 -0.593234,0.280091 -0.875,0.4375 -1.690597,0.944455 -3.13063,2.293967 -4.1875,3.90625 -0.06172,0.09466 -0.128425,0.184743 -0.1875,0.28125 -0.110716,0.179607 -0.211192,0.376706 -0.3125,0.5625 -0.308941,0.566586 -0.565984,1.163156 -0.78125,1.78125 C 12.225719,21.298687 12,22.61225 12,24 c 0,3.519374 1.537093,6.654422 3.9375,8.84375 C 14.117173,30.744615 13,28.009073 13,25 c 0,-1.38775 0.225719,-2.701313 0.65625,-3.9375 0.215266,-0.618094 0.472309,-1.214664 0.78125,-1.78125 0.101308,-0.185794 0.201784,-0.382893 0.3125,-0.5625 0.05907,-0.09651 0.125784,-0.186592 0.1875,-0.28125 1.05687,-1.612283 2.496903,-2.961795 4.1875,-3.90625 0.281766,-0.157409 0.579701,-0.302613 0.875,-0.4375 0.581739,-0.265727 1.184945,-0.48447 1.8125,-0.65625 l 0.03125,0 C 22.853841,13.164798 23.901715,13 25,13 c 3.101913,0 5.904216,1.178461 8.03125,3.09375 C 30.831614,13.586942 27.613416,12 24,12 z"
     id="path45"
     inkscape:connector-curvature="0"
     sodipodi:nodetypes="sccssccssscsssccssccscs" />
  <path
     style="fill:#f3f284;fill-opacity:1;fill-rule:nonzero;stroke:none"
     d="M 45.25 15.21875 C 45.480164 15.774702 45.688113 16.32933 45.875 16.90625 C 45.689672 16.335903 45.478011 15.769201 45.25 15.21875 z M 45.875 16.90625 L 35.4375 20.28125 C 35.312488 19.89211 35.162608 19.52644 35 19.15625 L 34.96875 19.15625 C 35.62075 20.63625 36 22.273 36 24 C 36 28.219 33.8405 31.9285 30.5625 34.0625 L 36.3125 43.40625 C 42.738644 39.327386 47 32.175164 47 24 C 47 21.517278 46.601975 19.143519 45.875 16.90625 z "
     id="path61" />
  <path
     style="fill:#9ab9dd;fill-opacity:1;fill-rule:nonzero;stroke:none"
     d="m 2.1875,16.78125 c -1.45833333,20.8125 -0.7291667,10.40625 0,0 z m -0.0625,0.125 C 1.3990052,19.138717 1,21.524099 1,24 c 0,7.64258 3.733769,14.411055 9.46875,18.59375 l 6.46875,-8.875 C 13.941946,31.541024 12,28.00309 12,24 c 0,-1.293324 0.187345,-2.553215 0.5625,-3.71875 z"
     id="path63"
     inkscape:connector-curvature="0"
     sodipodi:nodetypes="cccsccscc" />
  <path
     style="fill:#9add9c;fill-opacity:1;fill-rule:nonzero;stroke:none"
     d="M 16.9375 33.71875 L 10.46875 42.59375 C 14.267056 45.363969 18.938648 47 24 47 C 29.061352 47 33.732944 45.363969 37.53125 42.59375 L 31.0625 33.71875 C 29.0855 35.15675 26.642 36 24 36 C 21.355 36 18.9115 35.15575 16.9375 33.71875 z "
     id="path65" />
  <path
     style="fill:#ed8e68;fill-opacity:1;fill-rule:nonzero;stroke:none"
     d="M 24 1 C 13.772864 1 5.1151999 7.6755301 2.125 16.90625 L 12.5625 20.28125 C 14.1175 15.45725 18.644 12 24 12 L 24 1 z "
     id="path69" />
  <path
     style="fill:#edb968;fill-opacity:1;fill-rule:nonzero;stroke:none"
     d="M 23.96875 1 L 24 12 C 29.355 12 33.8865 15.45325 35.4375 20.28125 L 45.875 16.90625 C 42.8848 7.6755301 34.227136 1 24 1 C 23.989561 1 23.979186 0.9999861 23.96875 1 z "
     id="path67" />
  <g
     id="g71">
    <path
       d="m 40.03 7.531 c 3.712 4.084 5.969 9.514 5.969 15.469 0 12.703 -10.297 23 -23 23 c -5.954 0 -11.384 -2.256 -15.469 -5.969 4.178 4.291 10.01 6.969 16.469 6.969 c 12.703 0 23 -10.298 23 -23 0 -6.462 -2.677 -12.291 -6.969 -16.469 z"
       opacity="0.1"
       id="path73" />
  </g>
</svg>

<svg xmlns="http://www.w3.org/2000/svg" viewBox="0 0 48 48"><defs><clipPath><g transform="translate(0,-1004.3622)"><path d="m -24 13 c 0 1.105 -0.672 2 -1.5 2 -0.828 0 -1.5 -0.895 -1.5 -2 0 -1.105 0.672 -2 1.5 -2 0.828 0 1.5 0.895 1.5 2 z" transform="matrix(15.333333,0,0,11.5,414.99999,878.8622)" fill="#1890d0"/></g></clipPath><clipPath><g transform="translate(0,-1004.3622)"><path d="m -24 13 c 0 1.105 -0.672 2 -1.5 2 -0.828 0 -1.5 -0.895 -1.5 -2 0 -1.105 0.672 -2 1.5 -2 0.828 0 1.5 0.895 1.5 2 z" transform="matrix(15.333333,0,0,11.5,414.99999,878.8622)" fill="#1890d0"/></g></clipPath><linearGradient id="linearGradient3165" gradientUnits="userSpaceOnUse" gradientTransform="matrix(0,-0.97498811,0.97498811,0,0.60028377,47.399713)" x1="1" x2="47"><stop stop-color="#e4e4e4" stop-opacity="1"/><stop offset="1" stop-color="#eee" stop-opacity="1"/></linearGradient></defs><g><path d="m 36.31 5 c 5.859 4.062 9.688 10.831 9.688 18.5 c 0 12.426 -10.07 22.5 -22.5 22.5 c -7.669 0 -14.438 -3.828 -18.5 -9.688 c 1.037 1.822 2.306 3.499 3.781 4.969 c 4.085 3.712 9.514 5.969 15.469 5.969 c 12.703 0 23 -10.298 23 -23 c 0 -5.954 -2.256 -11.384 -5.969 -15.469 c -1.469 -1.475 -3.147 -2.744 -4.969 -3.781 z m 4.969 3.781 c 3.854 4.113 6.219 9.637 6.219 15.719 c 0 12.703 -10.297 23 -23 23 c -6.081 0 -11.606 -2.364 -15.719 -6.219 c 4.16 4.144 9.883 6.719 16.219 6.719 c 12.703 0 23 -10.298 23 -23 c 0 -6.335 -2.575 -12.06 -6.719 -16.219 z" opacity="0.05"/><path d="m 41.28 8.781 c 3.712 4.085 5.969 9.514 5.969 15.469 c 0 12.703 -10.297 23 -23 23 c -5.954 0 -11.384 -2.256 -15.469 -5.969 c 4.113 3.854 9.637 6.219 15.719 6.219 c 12.703 0 23 -10.298 23 -23 c 0 -6.081 -2.364 -11.606 -6.219 -15.719 z" opacity="0.1"/><path d="m 31.25 2.375 c 8.615 3.154 14.75 11.417 14.75 21.13 c 0 12.426 -10.07 22.5 -22.5 22.5 c -9.708 0 -17.971 -6.135 -21.12 -14.75 a 23 23 0 0 0 44.875 -7 a 23 23 0 0 0 -16 -21.875 z" opacity="0.2"/></g><path d="m 24 1.575 c 12.385 0 22.425 10.04 22.425 22.425 0 12.385 -10.04 22.425 -22.425 22.425 -12.385 0 -22.425 -10.04 -22.425 -22.425 0 -12.385 10.04 -22.425 22.425 -22.425 z" fill="url(#linearGradient3165)" fill-opacity="1"/><path d="m 24 12 c -1.098 0 -2.146 0.165 -3.156 0.438 l -0.031 0 c -0.628 0.172 -1.231 0.391 -1.813 0.656 -0.295 0.135 -0.593 0.28 -0.875 0.438 -1.691 0.944 -3.131 2.294 -4.188 3.906 -0.062 0.095 -0.128 0.185 -0.188 0.281 -0.111 0.18 -0.211 0.377 -0.313 0.563 -0.309 0.567 -0.566 1.163 -0.781 1.781 c -0.431 1.236 -0.656 2.55 -0.656 3.938 c 0 3.519 1.537 6.654 3.938 8.844 c -1.82 -2.099 -2.938 -4.835 -2.938 -7.844 c 0 -1.388 0.226 -2.701 0.656 -3.938 0.215 -0.618 0.472 -1.215 0.781 -1.781 0.101 -0.186 0.202 -0.383 0.313 -0.563 0.059 -0.097 0.126 -0.187 0.188 -0.281 1.057 -1.612 2.497 -2.962 4.188 -3.906 0.282 -0.157 0.58 -0.303 0.875 -0.438 0.582 -0.266 1.185 -0.484 1.813 -0.656 l 0.031 0 c 1.01 -0.273 2.058 -0.438 3.156 -0.438 c 3.102 0 5.904 1.178 8.03 3.094 c -2.2 -2.507 -5.418 -4.094 -9.03 -4.094 z" opacity="0.1" fill="#000" fill-rule="nonzero" stroke="none" fill-opacity="1"/><path d="m 45.25 15.219 c 0.23 0.556 0.438 1.111 0.625 1.688 c -0.185 -0.57 -0.397 -1.137 -0.625 -1.688 z m 0.625 1.688 l -10.438 3.375 c -0.125 -0.389 -0.275 -0.755 -0.438 -1.125 l -0.031 0 c 0.652 1.48 1.031 3.117 1.031 4.844 c 0 4.219 -2.16 7.929 -5.438 10.06 l 5.75 9.344 c 6.426 -4.079 10.688 -11.231 10.688 -19.406 c 0 -2.483 -0.398 -4.856 -1.125 -7.094 z" fill="#f3f284" fill-rule="nonzero" stroke="none" fill-opacity="1"/><path d="m 2.188 16.781 c -1.458 20.813 -0.729 10.406 0 0 z m -0.063 0.125 c -0.726 2.232 -1.125 4.618 -1.125 7.094 c 0 7.643 3.734 14.411 9.469 18.594 l 6.469 -8.875 c -2.996 -2.178 -4.938 -5.716 -4.938 -9.719 c 0 -1.293 0.187 -2.553 0.563 -3.719 z" fill="#9ab9dd" fill-rule="nonzero" stroke="none" fill-opacity="1"/><path d="m 16.938 33.719 l -6.469 8.875 c 3.798 2.77 8.47 4.406 13.531 4.406 c 5.061 0 9.733 -1.636 13.531 -4.406 l -6.469 -8.875 c -1.977 1.438 -4.421 2.281 -7.06 2.281 c -2.645 0 -5.089 -0.844 -7.06 -2.281 z" fill="#9add9c" fill-rule="nonzero" stroke="none" fill-opacity="1"/><path d="m 24 1 c -10.227 0 -18.885 6.676 -21.875 15.906 l 10.438 3.375 c 1.555 -4.824 6.081 -8.281 11.438 -8.281 l 0 -11 z" fill="#ed8e68" fill-rule="nonzero" stroke="none" fill-opacity="1"/><path d="m 23.969 1 l 0.031 11 c 5.355 0 9.886 3.453 11.438 8.281 l 10.438 -3.375 c -2.99 -9.231 -11.648 -15.906 -21.875 -15.906 c -0.01 0 -0.021 0 -0.031 0 z" fill="#edb968" fill-rule="nonzero" stroke="none" fill-opacity="1"/><g><path d="m 40.03 7.531 c 3.712 4.084 5.969 9.514 5.969 15.469 0 12.703 -10.297 23 -23 23 c -5.954 0 -11.384 -2.256 -15.469 -5.969 4.178 4.291 10.01 6.969 16.469 6.969 c 12.703 0 23 -10.298 23 -23 0 -6.462 -2.677 -12.291 -6.969 -16.469 z" opacity="0.1"/></g></svg>
